images/newshoverarrow.svg

<svg width="17" height="17" viewBox="0 0 17 17" fill="none" xmlns="http://www.w3.org/2000/svg">
<g id="Chevron Down">
<path id="Vector" fill-rule="evenodd" clip-rule="evenodd" d="M11.1809 8.16979C11.3571 8.34601 11.3571 8.63166 11.1809 8.80787L6.58062 13.4081C6.40441 13.5843 6.11876 13.5843 5.94255 13.4081L5.72982 13.1954C5.5536 13.0192 5.5536 12.7335 5.72982 12.5573L9.79832 8.48883L5.72982 4.42033C5.5536 4.24412 5.5536 3.95847 5.72982 3.78226L5.94255 3.56953C6.11876 3.39331 6.40441 3.39331 6.58062 3.56953L11.1809 8.16979Z" fill="#FF007A"/>
</g>
</svg>

<svg xmlns="http://www.w3.org/2000/svg" width="17" height="17" fill="none"><path fill="#FF007A" fill-rule="evenodd" d="M11.18 8.17a.451.451 0 0 1 0 .638l-4.6 4.6a.451.451 0 0 1-.637 0l-.213-.213a.451.451 0 0 1 0-.638L9.798 8.49 5.73 4.42a.451.451 0 0 1 0-.638l.213-.212a.451.451 0 0 1 .638 0l4.6 4.6Z" clip-rule="evenodd"/></svg>
